X: 4083
M: C
L: 1/8
K: D
uA,2 |\
d2cA B2AF |[1 G2BG (FG)EF :|[2 GBAF D2 |]
|: (fg) |\
a2(fd) dfdf | b2(ge) gbgb |\
[1 a2(fd) dfdf | geaf d2 :|\
[2 afge fdAF | GBAF D2 |]


